;FLAVOR:Marlin
;TIME:6740
;Filament used: 5.33052m
;Layer height: 0.2
;MINX:88.501
;MINY:88.5
;MINZ:0.2
;MAXX:146.499
;MAXY:146.5
;MAXZ:40
;Generated with Cura_SteamEngine main
M140 S60
M105
M190 S60
M104 S200
M105
M109 S200
M82 ;absolute extrusion mode
; Ender 3 Custom Start G-code
G92 E0 ; Reset Extruder
G28 ; Home all axes
G1 Z2.0 F3000 ; Move Z Axis up little to prevent scratching of Heat Bed
G1 X0.1 Y20 Z0.3 F5000.0 ; Move to start position
G1 X0.1 Y200.0 Z0.3 F1500.0 E15 ; Draw the first line
G1 X0.4 Y200.0 Z0.3 F5000.0 ; Move to side a little
G1 X0.4 Y20 Z0.3 F1500.0 E30 ; Draw the second line
G92 E0 ; Reset Extruder
G1 Z2.0 F3000 ; Move Z Axis up little to prevent scratching of Heat Bed
G1 X5 Y20 Z0.3 F5000.0 ; Move over to prevent blob squish
G92 E0
G92 E0
G1 F2700 E-5
;LAYER_COUNT:200
;LAYER:0
M106 S25.5
G0 F6000 X91.035 Y91.258 Z0.2
G0 X88.502 Y98.052
;TYPE:SKIRT
G1 F2700 E0
G1 F1200 X88.511 Y97.387 E0.02433
G1 X88.562 Y96.54 E0.05538
G1 X88.693 Y95.702 E0.08641
G1 X88.902 Y94.88 E0.11744
G1 X89.188 Y94.082 E0.14845
G1 X89.548 Y93.313 E0.17952
G1 X89.978 Y92.582 E0.21055
G1 X90.476 Y91.895 E0.24159
G1 X91.035 Y91.258 E0.2726
G1 X91.653 Y90.676 E0.30366
G1 X92.322 Y90.155 E0.33468
G1 X93.037 Y89.699 E0.3657
G1 X93.793 Y89.313 E0.39676
G1 X94.581 Y88.999 E0.42779
G1 X95.395 Y88.761 E0.45882
G1 X96.228 Y88.601 E0.48986
G1 X97.258 Y88.513 E0.52768
G1 X97.831 Y88.5 E0.54865
G1 X136.792 Y88.5 E1.97408
G1 X137.619 Y88.511 E2.00434
G1 X138.466 Y88.563 E2.03539
G1 X139.304 Y88.695 E2.06642
G1 X140.126 Y88.905 E2.09746
G1 X140.924 Y89.191 E2.12848
G1 X141.692 Y89.551 E2.15951
G1 X142.423 Y89.982 E2.19056
G1 X143.11 Y90.48 E2.2216
G1 X143.746 Y91.04 E2.2526
G1 X144.328 Y91.658 E2.28366
G1 X144.848 Y92.328 E2.31469
G1 X145.304 Y93.044 E2.34575
G1 X145.689 Y93.799 E2.37675
G1 X146.002 Y94.588 E2.40781
G1 X146.24 Y95.402 E2.43884
G1 X146.399 Y96.235 E2.46986
G1 X146.486 Y97.257 E2.50739
G1 X146.499 Y97.83 E2.52836
G1 X146.498 Y136.875 E3.95687
G1 X146.489 Y137.602 E3.98347
G1 X146.439 Y138.449 E4.01451
G1 X146.309 Y139.287 E4.04553
G1 X146.101 Y140.11 E4.07659
G1 X145.816 Y140.909 E4.10763
G1 X145.457 Y141.678 E4.13868
G1 X145.027 Y142.409 E4.16971
G1 X144.531 Y143.097 E4.20074
G1 X143.972 Y143.735 E4.23177
G1 X143.355 Y144.317 E4.2628
G1 X142.686 Y144.839 E4.29385
G1 X141.972 Y145.296 E4.32486
G1 X141.217 Y145.683 E4.3559
G1 X140.429 Y145.998 E4.38695
G1 X139.615 Y146.237 E4.41799
G1 X138.782 Y146.398 E4.44903
G1 X137.742 Y146.487 E4.48722
G1 X137.169 Y146.5 E4.50819
G1 X98.092 Y146.499 E5.93786
G1 X97.394 Y146.49 E5.9634
G1 X96.547 Y146.439 E5.99445
G1 X95.709 Y146.309 E6.02547
G1 X94.887 Y146.1 E6.0565
G1 X94.088 Y145.815 E6.08754
G1 X93.319 Y145.456 E6.11859
G1 X92.588 Y145.026 E6.14962
G1 X91.901 Y144.529 E6.18064
G1 X91.263 Y143.97 E6.21167
G1 X90.681 Y143.353 E6.24271
G1 X90.159 Y142.684 E6.27375
G1 X89.703 Y141.969 E6.30478
G1 X89.316 Y141.214 E6.33582
G1 X89.002 Y140.426 E6.36685
G1 X88.763 Y139.612 E6.39789
G1 X88.603 Y138.779 E6.42892
G1 X88.513 Y137.734 E6.4673
G1 X88.501 Y137.158 E6.48838
G1 X88.502 Y98.052 E7.91911
G0 F6000 X88.902 Y98.058
G1 F1200 X88.911 Y97.393 E7.94345
G1 X88.962 Y96.565 E7.9738
G1 X89.093 Y95.746 E8.00414
G1 X89.302 Y94.944 E8.03446
G1 X89.587 Y94.165 E8.06481
G1 X89.946 Y93.418 E8.09513
G1 X90.375 Y92.708 E8.12548
G1 X90.87 Y92.043 E8.15581
G1 X91.428 Y91.429 E8.18617
G1 X92.041 Y90.872 E8.21647
G1 X92.706 Y90.376 E8.24682
G1 X93.415 Y89.946 E8.27716
G1 X94.163 Y89.587 E8.30752
G1 X94.941 Y89.302 E8.33783
G1 X95.744 Y89.092 E8.3682
G1 X96.563 Y88.961 E8.39854
G1 X97.269 Y88.912 E8.42443
G1 X97.831 Y88.9 E8.445
G1 X136.792 Y88.9 E9.87043
G1 X137.613 Y88.911 E9.90047
G1 X138.441 Y88.963 E9.93083
G1 X139.26 Y89.094 E9.96117
G1 X140.062 Y89.304 E9.9915
G1 X140.84 Y89.589 E10.02182
G1 X141.587 Y89.949 E10.05215
G1 X142.297 Y90.379 E10.08252
G1 X142.961 Y90.875 E10.11285
G1 X143.575 Y91.432 E10.14318
G1 X144.132 Y92.047 E10.17353
G1 X144.627 Y92.712 E10.20386
G1 X145.056 Y93.421 E10.23418
G1 X145.415 Y94.169 E10.26454
G1 X145.699 Y94.948 E10.29487
G1 X145.908 Y95.75 E10.32519
G1 X146.038 Y96.569 E10.35553
G1 X146.087 Y97.268 E10.38117
G1 X146.099 Y97.83 E10.40174
G1 X146.098 Y136.87 E11.83006
G1 X146.089 Y137.597 E11.85666
G1 X146.039 Y138.425 E11.88701
G1 X145.909 Y139.244 E11.91735
G1 X145.701 Y140.047 E11.94769
G1 X145.417 Y140.826 E11.97803
G1 X145.059 Y141.574 E12.00837
G1 X144.631 Y142.284 E12.0387
G1 X144.136 Y142.949 E12.06903
G1 X143.579 Y143.564 E12.09939
G1 X142.966 Y144.122 E12.12972
G1 X142.302 Y144.619 E12.16006
G1 X141.593 Y145.049 E12.1904
G1 X140.846 Y145.409 E12.22074
G1 X140.068 Y145.695 E12.25106
G1 X139.266 Y145.906 E12.2814
G1 X138.447 Y146.038 E12.31175
G1 X137.731 Y146.088 E12.33801
G1 X137.169 Y146.1 E12.35858
G1 X98.097 Y146.099 E13.78807
G1 X97.399 Y146.09 E13.81361
G1 X96.571 Y146.04 E13.84396
G1 X95.753 Y145.91 E13.87426
G1 X94.95 Y145.701 E13.90462
G1 X94.171 Y145.416 E13.93497
G1 X93.423 Y145.058 E13.96531
G1 X92.714 Y144.629 E13.99563
G1 X92.048 Y144.134 E14.02599
G1 X91.434 Y143.577 E14.05632
G1 X90.876 Y142.964 E14.08664
G1 X90.38 Y142.299 E14.117
G1 X89.95 Y141.59 E14.14733
G1 X89.59 Y140.843 E14.17767
G1 X89.304 Y140.065 E14.208
G1 X89.094 Y139.263 E14.23833
G1 X88.963 Y138.444 E14.26867
G1 X88.913 Y137.723 E14.29512
G1 X88.901 Y137.158 E14.31579
G1 X88.902 Y98.058 E15.74631
G0 F6000 X89.302 Y98.063
G1 F1200 X89.311 Y97.398 E15.77064
G1 X89.362 Y96.59 E15.80026
G1 X89.492 Y95.791 E15.82988
G1 X89.701 Y95.008 E15.85953
G1 X89.985 Y94.25 E15.88914
G1 X90.343 Y93.524 E15.91876
G1 X90.771 Y92.837 E15.94837
G1 X91.265 Y92.195 E15.97801
G1 X91.819 Y91.605 E16.00762
G1 X92.429 Y91.073 E16.03723
G1 X93.089 Y90.603 E16.06688
G1 X93.792 Y90.201 E16.0965
G1 X94.53 Y89.869 E16.12611
G1 X95.298 Y89.613 E16.15573
G1 X96.088 Y89.433 E16.18537
G1 X97.28 Y89.312 E16.22921
G1 X97.831 Y89.3 E16.24937
G1 X136.792 Y89.3 E17.67481
G1 X137.607 Y89.311 E17.70463
G1 X138.416 Y89.362 E17.73428
G1 X139.215 Y89.493 E17.76391
G1 X139.997 Y89.703 E17.79353
G1 X140.755 Y89.988 E17.82316
G1 X141.48 Y90.346 E17.85274
G1 X142.167 Y90.775 E17.88237
G1 X142.809 Y91.269 E17.91201
G1 X143.398 Y91.824 E17.94162
G1 X143.93 Y92.434 E17.97123
G1 X144.4 Y93.094 E18.00087
G1 X144.801 Y93.797 E18.03048
G1 X145.132 Y94.537 E18.06014
G1 X145.388 Y95.305 E18.08976
G1 X145.567 Y96.094 E18.11936
G1 X145.687 Y97.279 E18.16294
G1 X145.699 Y97.83 E18.1831
G1 X145.698 Y136.866 E19.61128
G1 X145.689 Y137.593 E19.63788
G1 X145.639 Y138.401 E19.6675
G1 X145.51 Y139.2 E19.69711
G1 X145.302 Y139.983 E19.72675
G1 X145.019 Y140.741 E19.75635
G1 X144.661 Y141.468 E19.786
G1 X144.234 Y142.155 E19.81559
G1 X143.741 Y142.798 E19.84524
G1 X143.187 Y143.388 E19.87485
G1 X142.578 Y143.922 E19.90448
G1 X141.919 Y144.392 E19.93409
G1 X141.217 Y144.795 E19.96371
G1 X140.478 Y145.127 E19.99335
G1 X139.711 Y145.385 E20.02296
G1 X138.921 Y145.565 E20.0526
G1 X137.72 Y145.688 E20.09677
G1 X137.169 Y145.7 E20.11693
G1 X98.102 Y145.699 E21.54624
G1 X97.404 Y145.69 E21.57178
G1 X96.596 Y145.64 E21.6014
G1 X95.797 Y145.51 E21.63102
G1 X95.014 Y145.302 E21.66066
G1 X94.256 Y145.018 E21.69027
G1 X93.53 Y144.66 E21.71989
G1 X92.842 Y144.233 E21.74951
G1 X92.2 Y143.74 E21.77913
G1 X91.61 Y143.185 E21.80876
G1 X91.077 Y142.576 E21.83837
G1 X90.607 Y141.916 E21.86802
G1 X90.204 Y141.214 E21.89763
G1 X89.872 Y140.475 E21.92727
G1 X89.615 Y139.708 E21.95687
G1 X89.435 Y138.918 E21.98651
G1 X89.313 Y137.713 E22.03082
G1 X89.301 Y137.158 E22.05113
G1 X89.302 Y98.063 E23.48147
G1 F2700 E18.48147
;MESH:cube.stl
G0 F6000 X96.836 Y98.063
G0 X97.921 Y98.063
G0 X98.501 Y136.5
;TYPE:WALL-INNER
G1 F2700 E23.48147
G1 F1200 X136.499 Y136.5 E24.87167
G1 X136.499 Y117.5 E25.56681
G1 X136.499 Y98.501 E26.26191
G1 X98.501 Y98.501 E27.65211
G1 X98.501 Y136.5 E29.04234
G0 F6000 X98.101 Y136.9
G1 F1200 X136.899 Y136.9 E30.46181
G1 X136.899 Y117.5 E31.17158
G1 X136.899 Y98.101 E31.88132
G1 X98.101 Y98.101 E33.30079
G1 X98.101 Y136.9 E34.72029
G0 F6000 X97.701 Y137.3
;TYPE:WALL-OUTER
G1 F1200 X137.299 Y137.3 E36.16903
G1 X137.299 Y117.5 E36.89344
G1 X137.299 Y97.701 E37.61781
G1 X97.701 Y97.701 E39.06655
G1 X97.701 Y137.3 E40.51532
G0 F6000 X97.971 Y137.03
G0 X98.601 Y136.14
G0 X98.861 Y136.14
;TYPE:SKIN
G1 F1200 X136.139 Y136.14 E41.87918
G1 X136.139 Y117.501 E42.56111
G1 X136.139 Y98.862 E43.24304
G1 X98.861 Y98.862 E44.6069
G1 X98.861 Y136.14 E45.97075
G0 F6000 X99.169 Y135.939
G1 F1200 X99.06 Y135.83 E45.97639
G0 F6000 X99.06 Y135.264
G1 F1200 X99.735 Y135.939 E46.01132
G0 F6000 X100.3 Y135.939
G1 F1200 X99.06 Y134.698 E46.0755
G0 F6000 X99.06 Y134.133
G1 F1200 X100.866 Y135.939 E46.16895
G0 F6000 X101.432 Y135.939
G1 F1200 X99.06 Y133.567 E46.29168
G0 F6000 X99.06 Y133.001
G1 F1200 X101.998 Y135.939 E46.44369
G0 F6000 X102.563 Y135.939
G1 F1200 X99.06 Y132.436 E46.62494
G0 F6000 X99.06 Y131.87
G1 F1200 X103.129 Y135.939 E46.83547
G0 F6000 X103.695 Y135.939
G1 F1200 X99.06 Y131.304 E47.07529
G0 F6000 X99.06 Y130.739
G1 F1200 X104.26 Y135.939 E47.34434
G0 F6000 X104.826 Y135.939
G1 F1200 X99.06 Y130.173 E47.64267
G0 F6000 X99.06 Y129.607
G1 F1200 X105.392 Y135.939 E47.9703
G0 F6000 X105.957 Y135.939
G1 F1200 X99.06 Y129.042 E48.32715
G0 F6000 X99.06 Y128.476
G1 F1200 X106.523 Y135.939 E48.71329
G0 F6000 X107.089 Y135.939
G1 F1200 X99.06 Y127.91 E49.12872
G0 F6000 X99.06 Y127.344
G1 F1200 X107.654 Y135.939 E49.5734
G0 F6000 X108.22 Y135.939
G1 F1200 X99.06 Y126.779 E50.04735
G0 F6000 X99.06 Y126.213
G1 F1200 X108.786 Y135.939 E50.55058
G0 F6000 X109.351 Y135.939
G1 F1200 X99.06 Y125.647 E51.08306
G0 F6000 X99.06 Y125.082
G1 F1200 X109.917 Y135.939 E51.64481
G0 F6000 X110.483 Y135.939
G1 F1200 X99.06 Y124.516 E52.23585
G0 F6000 X99.06 Y123.95
G1 F1200 X111.048 Y135.939 E52.85614
G0 F6000 X111.614 Y135.939
G1 F1200 X99.06 Y123.385 E53.50569
G0 F6000 X99.06 Y122.819
G1 F1200 X112.18 Y135.939 E54.18453
G0 F6000 X112.746 Y135.939
G1 F1200 X99.06 Y122.253 E54.89265
G0 F6000 X99.06 Y121.688
G1 F1200 X113.311 Y135.939 E55.63
G0 F6000 X113.877 Y135.939
G1 F1200 X99.06 Y121.122 E56.39665
G0 F6000 X99.06 Y120.556
G1 F1200 X114.443 Y135.939 E57.19257
G0 F6000 X115.008 Y135.939
G1 F1200 X99.06 Y119.991 E58.01773
G0 F6000 X99.06 Y119.425
G1 F1200 X115.574 Y135.939 E58.87218
G0 F6000 X116.14 Y135.939
G1 F1200 X99.06 Y118.859 E59.75591
G0 F6000 X99.06 Y118.294
G1 F1200 X116.705 Y135.939 E60.66887
G0 F6000 X117.271 Y135.939
G1 F1200 X99.06 Y117.728 E61.61112
G0 F6000 X99.06 Y117.162
G1 F1200 X117.837 Y135.939 E62.58265
G0 F6000 X118.402 Y135.939
G1 F1200 X99.06 Y116.596 E63.58344
G0 F6000 X99.06 Y116.031
G1 F1200 X118.968 Y135.939 E64.6135
G0 F6000 X119.534 Y135.939
G1 F1200 X99.06 Y115.465 E65.67283
G0 F6000 X99.06 Y114.899
G1 F1200 X120.099 Y135.939 E66.76143
G0 F6000 X120.665 Y135.939
G1 F1200 X99.06 Y114.334 E67.87929
G0 F6000 X99.06 Y113.768
G1 F1200 X121.231 Y135.939 E69.02643
G0 F6000 X121.797 Y135.939
G1 F1200 X99.06 Y113.202 E70.20286
G0 F6000 X99.06 Y112.637
G1 F1200 X122.362 Y135.939 E71.40852
G0 F6000 X122.928 Y135.939
G1 F1200 X99.06 Y112.071 E72.64346
G0 F6000 X99.06 Y111.505
G1 F1200 X123.494 Y135.939 E73.90769
G0 F6000 X124.059 Y135.939
G1 F1200 X99.06 Y110.94 E75.20116
G0 F6000 X99.06 Y110.374
G1 F1200 X124.625 Y135.939 E76.52391
G0 F6000 X125.191 Y135.939
G1 F1200 X99.06 Y109.808 E77.87594
G0 F6000 X99.06 Y109.243
G1 F1200 X125.756 Y135.939 E79.25721
G0 F6000 X126.322 Y135.939
G1 F1200 X99.06 Y108.677 E80.66776
G0 F6000 X99.06 Y108.111
G1 F1200 X126.888 Y135.939 E82.1076
G0 F6000 X127.453 Y135.939
G1 F1200 X99.06 Y107.545 E83.5767
G0 F6000 X99.06 Y106.98
G1 F1200 X128.019 Y135.939 E85.07505
G0 F6000 X128.585 Y135.939
G1 F1200 X99.06 Y106.414 E86.60269
G0 F6000 X99.06 Y105.848
G1 F1200 X129.15 Y135.939 E88.1596
G0 F6000 X129.716 Y135.939
G1 F1200 X99.06 Y105.283 E89.74576
G0 F6000 X99.06 Y104.717
G1 F1200 X130.282 Y135.939 E91.3612
G0 F6000 X130.847 Y135.939
G1 F1200 X99.06 Y104.151 E93.00591
G0 F6000 X99.06 Y103.586
G1 F1200 X131.413 Y135.939 E94.67987
G0 F6000 X131.979 Y135.939
G1 F1200 X99.06 Y103.02 E96.38312
G0 F6000 X99.06 Y102.454
G1 F1200 X132.545 Y135.939 E98.11566
G0 F6000 X133.11 Y135.939
G1 F1200 X99.06 Y101.889 E99.87743
G0 F6000 X99.06 Y101.323
G1 F1200 X133.676 Y135.939 E101.66848
G0 F6000 X134.242 Y135.939
G1 F1200 X99.06 Y100.757 E103.48882
G0 F6000 X99.06 Y100.192
G1 F1200 X134.807 Y135.939 E105.33839
G0 F6000 X135.373 Y135.939
G1 F1200 X99.06 Y99.626 E107.21725
G0 F6000 X99.061 Y99.061
G1 F1200 X135.939 Y135.939 E109.12534
G0 F6000 X135.939 Y135.373
G1 F1200 X99.627 Y99.062 E111.00412
G0 F6000 X100.193 Y99.062
G1 F1200 X135.939 Y134.807 E112.85361
G0 F6000 X135.939 Y134.242
G1 F1200 X100.759 Y99.062 E114.67385
G0 F6000 X101.324 Y99.062
G1 F1200 X135.939 Y133.676 E116.46482
G0 F6000 X135.939 Y133.11
G1 F1200 X101.89 Y99.062 E118.22651
G0 F6000 X102.456 Y99.062
G1 F1200 X135.939 Y132.545 E119.95895
G0 F6000 X135.939 Y131.979
G1 F1200 X103.021 Y99.062 E121.66212
G0 F6000 X103.587 Y99.062
G1 F1200 X135.939 Y131.413 E123.33601
G0 F6000 X135.939 Y130.847
G1 F1200 X104.153 Y99.062 E124.98061
G0 F6000 X104.718 Y99.062
G1 F1200 X135.939 Y130.282 E126.59598
G0 F6000 X135.939 Y129.716
G1 F1200 X105.284 Y99.062 E128.18206
G0 F6000 X105.85 Y99.062
G1 F1200 X135.939 Y129.15 E129.73886
G0 F6000 X135.939 Y128.585
G1 F1200 X106.416 Y99.062 E131.26639
G0 F6000 X106.981 Y99.062
G1 F1200 X135.939 Y128.019 E132.76467
G0 F6000 X135.939 Y127.453
G1 F1200 X107.547 Y99.062 E134.23367
G0 F6000 X108.113 Y99.062
G1 F1200 X135.939 Y126.888 E135.6734
G0 F6000 X135.939 Y126.322
G1 F1200 X108.678 Y99.062 E137.08388
G0 F6000 X109.244 Y99.062
G1 F1200 X135.939 Y125.756 E138.46507
G0 F6000 X135.939 Y125.191
G1 F1200 X109.81 Y99.062 E139.817
G0 F6000 X110.375 Y99.062
G1 F1200 X135.939 Y124.625 E141.13967
G0 F6000 X135.939 Y124.059
G1 F1200 X110.941 Y99.062 E142.43306
G0 F6000 X111.507 Y99.062
G1 F1200 X135.939 Y123.494 E143.69718
G0 F6000 X135.939 Y122.928
G1 F1200 X112.072 Y99.062 E144.93205
G0 F6000 X112.638 Y99.062
G1 F1200 X135.939 Y122.362 E146.13763
G0 F6000 X135.939 Y121.797
G1 F1200 X113.204 Y99.062 E147.31396
G0 F6000 X113.769 Y99.062
G1 F1200 X135.939 Y121.231 E148.46102
G0 F6000 X135.939 Y120.665
G1 F1200 X114.335 Y99.062 E149.5788
G0 F6000 X114.901 Y99.062
G1 F1200 X135.939 Y120.099 E150.66729
G0 F6000 X135.939 Y119.534
G1 F1200 X115.467 Y99.062 E151.72653
G0 F6000 X116.032 Y99.062
G1 F1200 X135.939 Y118.968 E152.7565
G0 F6000 X135.939 Y118.402
G1 F1200 X116.598 Y99.062 E153.75719
G0 F6000 X117.164 Y99.062
G1 F1200 X135.939 Y117.837 E154.72862
G0 F6000 X135.938 Y117.27
G1 F1200 X117.729 Y99.062 E155.67074
G0 F6000 X118.295 Y99.062
G1 F1200 X135.938 Y116.705 E156.5836
G0 F6000 X135.938 Y116.139
G1 F1200 X118.861 Y99.062 E157.46718
G0 F6000 X119.426 Y99.062
G1 F1200 X135.938 Y115.573 E158.32149
G0 F6000 X135.938 Y115.008
G1 F1200 X119.992 Y99.062 E159.14655
G0 F6000 X120.558 Y99.062
G1 F1200 X135.938 Y114.442 E159.94232
G0 F6000 X135.938 Y113.876
G1 F1200 X121.123 Y99.062 E160.70883
G0 F6000 X121.689 Y99.062
G1 F1200 X135.938 Y113.311 E161.44608
G0 F6000 X135.938 Y112.745
G1 F1200 X122.255 Y99.062 E162.15405
G0 F6000 X122.82 Y99.062
G1 F1200 X135.938 Y112.179 E162.83276
G0 F6000 X135.938 Y111.613
G1 F1200 X123.386 Y99.062 E163.48218
G0 F6000 X123.952 Y99.062
G1 F1200 X135.938 Y111.048 E164.10234
G0 F6000 X135.938 Y110.482
G1 F1200 X124.517 Y99.062 E164.69325
G0 F6000 X125.083 Y99.062
G1 F1200 X135.938 Y109.916 E165.25486
G0 F6000 X135.938 Y109.351
G1 F1200 X125.649 Y99.062 E165.78722
G0 F6000 X126.215 Y99.062
G1 F1200 X135.938 Y108.785 E166.2903
G0 F6000 X135.938 Y108.219
G1 F1200 X126.78 Y99.062 E166.76411
G0 F6000 X127.346 Y99.062
G1 F1200 X135.938 Y107.654 E167.20867
G0 F6000 X135.938 Y107.088
G1 F1200 X127.912 Y99.062 E167.62394
G0 F6000 X128.477 Y99.062
G1 F1200 X135.938 Y106.522 E168.00995
G0 F6000 X135.938 Y105.957
G1 F1200 X129.043 Y99.062 E168.3667
G0 F6000 X129.609 Y99.062
G1 F1200 X135.938 Y105.391 E168.69417
G0 F6000 X135.938 Y104.825
G1 F1200 X130.174 Y99.062 E168.99237
G0 F6000 X130.74 Y99.062
