
;FLAVOR:Marlin
;TIME:0
;Filament used: 0m
;Layer height: 0
;MINX:0
;MINY:0
;MINZ:0
;MAXX:220
;MAXY:220
;MAXZ:250

;Time to print!!!!!
;GCode created with FullControl - tell us what you're printing!
;info@fullcontrol.xyz or tag FullControlXYZ on Twitter/Instagram 

G28 ; home axes
M140 S50 ; set bed temp and continue
M105
M104 S210 ; set hotend temp and continue
M190 S50 ; set bed temp and wait
M105
M109 S210  ; set hotend temp and wait
G90 ; absolute coordinates
G21 ; set units to millimeters
M83 ; relative extrusion
M106 S255 ; set fan speed
G0 F8000 X10.0 Y10.0 Z10.0
G1 F250 E20.7876
G0 F250 Z50.0
G0 F8000 Z0.3
M220 S100 ; set speed factor override percentage
M221 S100 ; set extrude factor override percentage
;-----
; END OF STARTING PROCEDURE
;-----

;-----
; START OF PRIMER PROCEDURE
;-----
G0 F8000 Y14.0 Z0.2
G1 F500 X110.0 E3.32601
G1 Y12.0 E0.0665203
G1 X10.0 E3.32601
G1 Y14.0 E0.0665203
G1 Y16.0 E0.0665203
G1 X50.0 E1.33041
G1 Y45.2 E0.971196
;-----
; END OF PRIMER PROCEDURE
;-----

G1 X51.7006 Y45.5337 E0.0576414
G1 X53.1648 Y46.4467 E0.0573906
G1 X54.2035 Y47.8151 E0.0571397
G1 X54.6852 Y49.4563 E0.0568889
G1 X54.5518 Y51.1539 E0.0566381
G1 X53.8262 Y52.6861 E0.0563873
G1 X52.6082 Y53.8546 E0.0561364
G1 X51.0611 Y54.5101 E0.0558856
G1 X49.3895 Y54.5718 E0.0556348
G1 X47.8126 Y54.037 E0.0553839
G1 X46.535 Y52.9808 E0.0551331
G1 X45.7207 Y51.5456 E0.0548823
G1 X45.4717 Y49.9221 E0.0546314
G1 X45.8151 Y48.3235 E0.0543806
G1 X46.7009 Y46.9583 E0.0541298
G1 X48.0085 Y46.0021 E0.053879
G1 X49.5636 Y45.5758 E0.0536281
G1 X51.161 Y45.7302 E0.0533773
G1 X52.5921 Y46.4397 E0.0531265
G1 X53.6719 Y47.6065 E0.0528757
G1 X54.2629 Y49.0742 E0.0526248
G1 X54.2927 Y50.6486 E0.052374
G1 X53.7628 Y52.1234 E0.0521232
G1 X52.7476 Y53.3073 E0.0518723
G1 X51.3841 Y54.0488 E0.0516215
G1 X49.8535 Y54.2555 E0.0513707
G1 X48.3569 Y53.9056 E0.0511199
G1 X47.089 Y53.0502 E0.050869
G1 X46.213 Y51.8057 E0.0506182
G1 X45.8391 Y50.3383 E0.0503674
G1 X46.0111 Y48.8413 E0.0501166
G1 X46.7011 Y47.5103 E0.0498657
G1 X47.8141 Y46.517 E0.0496149
G1 X49.2006 Y45.9876 E0.0493641
G1 X50.6772 Y45.9863 E0.0491133
G1 X52.0506 Y46.508 E0.0488625
G1 X53.1427 Y47.4793 E0.0486116
G1 X53.8142 Y48.769 E0.0483608
G1 X53.9817 Y50.2057 E0.04811
G1 X53.6288 Y51.6007 E0.0478592
G1 X52.8069 Y52.7726 E0.0476083
G1 X51.6279 Y53.5709 E0.0473575
G1 X50.2493 Y53.8957 E0.0471067
G1 X48.8529 Y53.7095 E0.0468559
G1 X47.6208 Y53.0421 E0.0466051
G1 X46.7119 Y51.9856 E0.0463542
G1 X46.2411 Y50.6819 E0.0461034
G1 X46.265 Y49.3035 E0.0458526
G1 X46.7751 Y48.0308 E0.0456018
G1 X47.6996 Y47.0286 E0.045351
G1 X48.9136 Y46.4245 E0.0451001
G1 X50.2556 Y46.2927 E0.0448493
G1 X51.5493 Y46.6453 E0.0445985
G1 X52.6268 Y47.4307 E0.0443477
G1 X53.35 Y48.5419 E0.0440969
G1 X53.6287 Y49.8304 E0.043846
G1 X53.4317 Y51.1262 E0.0435952
G1 X52.7902 Y52.2606 E0.0433444
G1 X51.7927 Y53.0874 E0.0430936
G1 X50.5733 Y53.5027 E0.0428428
G1 X49.2936 Y53.457 E0.042592
G1 X48.1208 Y52.9618 E0.0423411
G1 X47.2066 Y52.0867 E0.0420903
G1 X46.6669 Y50.9504 E0.0418395
G1 X46.5677 Y49.704 E0.0415887
G1 X46.9164 Y48.511 E0.0413379
G1 X47.6624 Y47.5264 E0.0410871
G1 X48.7036 Y46.8757 E0.0408363
G1 X49.9008 Y46.6398 E0.0405854
G1 X51.0962 Y46.8441 E0.0403346
G1 X52.1341 Y47.4567 E0.0400838
G1 X52.8812 Y48.3927 E0.039833
G1 X53.2439 Y49.5262 E0.0395822
G1 X53.1798 Y50.707 E0.0393314
G1 X52.7027 Y51.7808 E0.0390806
G1 X51.8799 Y52.609 E0.0388298
G1 X50.8231 Y53.0871 E0.038579
G1 X49.6729 Y53.1572 E0.0383282
G1 X48.5802 Y52.8155 E0.0380773
G1 X47.6867 Y52.112 E0.0378265
G1 X47.1059 Y51.1429 E0.0375757
G1 X46.9095 Y50.038 E0.0373249
G1 X47.1179 Y48.943 E0.0370741
G1 X47.6984 Y48.0002 E0.0368233
G1 X48.5705 Y47.3305 E0.0365725
G1 X49.6166 Y47.0172 E0.0363217
G1 X50.6983 Y47.0963 E0.0360709
G1 X51.674 Y47.552 E0.0358201
G1 X52.4184 Y48.3198 E0.0355693
G1 X52.8378 Y49.2954 E0.0353185
G1 X52.8821 Y50.3488 E0.0350677
G1 X52.5508 Y51.3419 E0.0348169
G1 X51.8926 Y52.1461 E0.0345661
G1 X50.9977 Y52.6596 E0.0343153
G1 X49.9861 Y52.8197 E0.0340645
G1 X48.9912 Y52.6107 E0.0338137
G1 X48.1422 Y52.0654 E0.0335629
G1 X47.5473 Y51.2596 E0.0333121
G1 X47.2804 Y50.3021 E0.0330613
G1 X47.3711 Y49.3198 E0.0328105
G1 X47.8022 Y48.4409 E0.0325597
G1 X48.5125 Y47.7782 E0.0323089
G1 X49.4051 Y47.4146 E0.0320581
G1 X50.3612 Y47.3928 E0.0318074
G1 X51.2553 Y47.7102 E0.0315566
G1 X51.972 Y48.3203 E0.0313058
G1 X52.421 Y49.139 E0.031055
G1 X52.5481 Y50.0564 E0.0308042
G1 X52.3419 Y50.9516 E0.0305534
G1 X51.8348 Y51.7084 E0.0303026
G1 X51.0976 Y52.2308 E0.0300518
G1 X50.23 Y52.4546 E0.0298011
G1 X49.347 Y52.3557 E0.0295503
G1 X48.5639 Y51.9523 E0.0292995
G1 X47.9807 Y51.3022 E0.0290487
G1 X47.6698 Y50.4941 E0.0287979
G1 X47.6671 Y49.6358 E0.0285472
G1 X47.9675 Y48.8398 E0.0282964
G1 X48.5266 Y48.2086 E0.0280456
G1 X49.2672 Y47.8214 E0.0277948
G1 X50.0896 Y47.724 E0.0275441
G1 X50.8854 Y47.924 E0.0272933
G1 X51.5517 Y48.39 E0.0270425
G1 X52.0042 Y49.0564 E0.0267918
G1 X52.188 Y49.8329 E0.026541
G1 X52.0842 Y50.6165 E0.0262902
G1 X51.7119 Y51.3052 E0.0260395
G1 X51.1244 Y51.8112 E0.0257887
G1 X50.4023 Y52.0723 E0.025538
G1 X49.6421 Y52.0593 E0.0252872
G1 X48.9434 Y51.7792 E0.0250364
G1 X48.3958 Y51.2738 E0.0247857
G1 X48.0674 Y50.6133 E0.0245349
G1 X47.9964 Y49.8866 E0.0242842
G1 X48.187 Y49.1896 E0.0240334
G1 X48.6088 Y48.6122 E0.0237827
G1 X49.2022 Y48.227 E0.0235319
G1 X49.8866 Y48.08 E0.0232812
G1 X50.571 Y48.1852 E0.0230305
G1 X51.1665 Y48.5235 E0.0227797
G1 X51.5976 Y49.0459 E0.022529
G1 X51.812 Y49.6805 E0.0222783
G1 X51.7867 Y50.3423 E0.0220275
G1 X51.5302 Y50.9447 E0.0217768
G1 X51.0812 Y51.4108 E0.0215261
G1 X50.5024 Y51.6832 E0.0212754
G1 X49.8721 Y51.7311 E0.0210246
G1 X49.2733 Y51.5534 E0.0207739
G1 X48.7831 Y51.1786 E0.0205232
G1 X48.4625 Y50.6602 E0.0202725
G1 X48.349 Y50.069 E0.0200218
G1 X48.4523 Y49.4836 E0.0197711
G1 X48.7535 Y48.9799 E0.0195204
G1 X49.2085 Y48.6212 E0.0192697
G1 X49.7542 Y48.4504 E0.019019
G1 X50.3174 Y48.4847 E0.0187683
G1 X50.8246 Y48.7144 E0.0185177
G1 X51.2113 Y49.1044 E0.018267
G1 X51.4307 Y49.5996 E0.0180163
G1 X51.4587 Y50.133 E0.0177657
G1 X51.2972 Y50.6343 E0.017515
G1 X50.9723 Y51.0391 E0.0172643
G1 X50.531 Y51.2978 E0.0170137
G1 X50.034 Y51.381 E0.016763
G1 X49.5473 Y51.283 E0.0165124
G1 X49.1338 Y51.022 E0.0162618
G1 X48.8451 Y50.6368 E0.0160112
G1 X48.7147 Y50.1813 E0.0157605
G1 X48.7546 Y49.7167 E0.0155099
G1 X48.9543 Y49.3036 E0.0152593
G1 X49.2827 Y48.9941 E0.0150087
G1 X49.6928 Y48.8248 E0.0147582
G1 X50.1289 Y48.8132 E0.0145076
G1 X50.5333 Y48.9553 E0.014257
G1 X50.8547 Y49.2274 E0.0140065
G1 X51.0542 Y49.5897 E0.0137559
G1 X51.1104 Y49.9918 E0.0135054
G1 X51.0211 Y50.3802 E0.0132549
G1 X50.8033 Y50.7049 E0.0130043
G1 X50.4901 Y50.9262 E0.0127539
G1 X50.1259 Y51.0193 E0.0125034
G1 X49.7599 Y50.9771 E0.0122529
G1 X49.4398 Y50.8106 E0.0120025
G1 X49.2052 Y50.5464 E0.011752
G1 X49.083 Y50.2229 E0.0115016
G1 X49.0844 Y49.8846 E0.0112512
G1 X49.2038 Y49.5762 E0.0110008
G1 X49.4205 Y49.3363 E0.0107505
G1 X49.7018 Y49.1931 E0.0105001
G1 X50.0083 Y49.1606 E0.0102498
G1 X50.2988 Y49.2379 E0.00999956
G1 X50.5364 Y49.4095 E0.00974931
G1 X50.6928 Y49.6485 E0.00949909
G1 X50.7518 Y49.9202 E0.00924891
G1 X50.7109 Y50.1877 E0.00899876
G1 X50.5806 Y50.4162 E0.00874866
G1 X50.383 Y50.5782 E0.0084986
G1 X50.1476 Y50.6563 E0.00824858
G1 X49.9074 Y50.6452 E0.00799862
G1 X49.694 Y50.5518 E0.00774871
G1 X49.5336 Y50.3933 E0.00749887
G1 X49.4438 Y50.1947 E0.0072491
G1 X49.4318 Y49.9846 E0.0069994
G1 X49.4937 Y49.7914 E0.00674979
G1 X49.6163 Y49.6391 E0.00650028
G1 X49.7789 Y49.545 E0.00625087
G1 X49.9571 Y49.5168 E0.00600158
G1 X50.1262 Y49.5533 E0.00575243
G1 X50.2645 Y49.6441 E0.00550343
G1 X50.3562 Y49.7728 E0.00525461
G1 X50.3934 Y49.9186 E0.00500599
G1 X50.376 Y50.0606 E0.0047576
G1 X50.3118 Y50.18 E0.00450948
G1 X50.0 Y50.0 E0.0119736
G1 F250 E0.207876
G1 F10 Z20.2 E9.40408
G1 F48 X50.0289 Y50.021 Z20.2001 E0.00186514
G1 X50.0221 Y50.0679 Z20.2003 E0.00247714
G1 X49.9669 Y50.1019 Z20.2006 E0.00338395
G1 X49.8845 Y50.0839 Z20.201 E0.00440716
G1 X49.8215 Y50.0 Z20.2016 E0.00548194
G1 X49.8267 Y49.8741 Z20.2023 E0.00658304
G1 X49.9228 Y49.7624 Z20.2031 E0.00769913
G1 X50.0882 Y49.7284 Z20.2041 E0.00882448
G1 X50.2599 Y49.8112 Z20.2052 E0.00995591
G1 F64 X50.3569 Y50.0 Z20.2064 E0.0110915
G1 X50.3176 Y50.2308 Z20.2077 E0.01223
G1 X50.1323 Y50.4073 Z20.2092 E0.0133707
G1 X49.8566 Y50.4412 Z20.2108 E0.014513
G1 X49.5958 Y50.2937 Z20.2125 E0.0156565
G1 X49.4648 Y50.0 Z20.2143 E0.0168009
G1 X49.5381 Y49.6644 Z20.2163 E0.0179459
G1 X49.8126 Y49.4232 Z20.2184 E0.0190915
G1 X50.1984 Y49.3893 Z20.2206 E0.0202374
G1 X50.5483 Y49.6016 Z20.223 E0.0213835
G1 F81 X50.7134 Y50.0 Z20.2255 E0.0225298
G1 X50.606 Y50.4402 Z20.2281 E0.0236762
G1 X50.2425 Y50.7462 Z20.2308 E0.0248226
G1 X49.7466 Y50.78 Z20.2337 E0.0259689
G1 X49.3077 Y50.503 Z20.2367 E0.0271152
G1 X49.1087 Y50.0 Z20.2398 E0.0282613
G1 X49.2501 Y49.4552 Z20.243 E0.0294073
G1 X49.7026 Y49.0847 Z20.2464 E0.030553
G1 X50.3084 Y49.0509 Z20.2499 E0.0316985
G1 X50.8361 Y49.3926 Z20.2535 E0.0328438
G1 F97 X51.069 Y50.0 Z20.2573 E0.0339887
G1 X50.8935 Y50.6492 Z20.2612 E0.0351333
G1 X50.3523 Y51.0841 Z20.2652 E0.0362776
G1 X49.6368 Y51.1178 Z20.2693 E0.0374214
G1 X49.0204 Y50.7117 Z20.2736 E0.0385649
G1 X48.7538 Y50.0 Z20.278 E0.039708
G1 X48.9631 Y49.2467 Z20.2825 E0.0408506
G1 X49.593 Y48.7474 Z20.2871 E0.0419928
G1 X50.4179 Y48.7138 Z20.2919 E0.0431344
G1 X51.1228 Y49.1843 Z20.2968 E0.0442756
G1 F113 X51.4231 Y50.0 Z20.3018 E0.0454163
G1 X51.1799 Y50.8573 Z20.3069 E0.0465564
G1 X50.4616 Y51.4207 Z20.3122 E0.047696
G1 X49.5275 Y51.4542 Z20.3176 E0.048835
G1 X48.7344 Y50.9195 Z20.3231 E0.0499735
G1 X48.4004 Y50.0 Z20.3288 E0.0511113
G1 X48.6774 Y49.0391 Z20.3345 E0.0522485
G1 X49.4839 Y48.4117 Z20.3404 E0.0533851
G1 X50.5269 Y48.3782 Z20.3465 E0.054521
G1 X51.408 Y48.977 Z20.3526 E0.0556562
G1 F129 X51.7755 Y50.0 Z20.3589 E0.0567908
G1 X51.563 Y50.9024 Z20.3642 E0.0484365
G1 X50.917 Y51.5883 Z20.3696 E0.0492275
G1 X50.0 Y51.8633 Z20.3751 E0.050018
G1 X49.0537 Y51.639 Z20.3807 E0.0508081
G1 X48.3357 Y50.9609 Z20.3864 E0.0515978
G1 X48.0491 Y50.0 Z20.3921 E0.052387
G1 X48.2852 Y49.01 Z20.398 E0.0531758
G1 X48.9954 Y48.26 Z20.4039 E0.0539641
G1 X50.0 Y47.9616 Z20.4099 E0.054752
G1 X51.0337 Y48.2095 Z20.4161 E0.0555393
G1 X51.8157 Y48.9517 Z20.4223 E0.0563262
G1 F145 X52.1257 Y50.0 Z20.4285 E0.0571126
G1 X51.9376 Y50.9331 Z20.434 E0.0497305
G1 X51.3564 Y51.7008 Z20.4395 E0.0503093
G1 X50.4896 Y52.1452 Z20.4451 E0.0508879
G1 X49.5048 Y52.1694 Z20.4507 E0.051466
G1 X48.5971 Y51.7592 Z20.4564 E0.0520439
G1 X47.9504 Y50.987 Z20.4622 E0.0526214
G1 X47.7003 Y50.0 Z20.468 E0.0531986
G1 X47.9057 Y48.9914 Z20.4739 E0.0537754
G1 X48.5352 Y48.1632 Z20.4799 E0.0543519
G1 X49.4717 Y47.6854 Z20.4859 E0.0549281
G1 X50.5338 Y47.6613 Z20.492 E0.0555039
G1 X51.5111 Y48.1051 Z20.4981 E0.0560793
G1 X52.2059 Y48.9377 Z20.5044 E0.0566544
G1 F161 X52.4731 Y50.0 Z20.5106 E0.0572291
G1 X52.3048 Y50.9547 Z20.5162 E0.0506465
G1 X51.7793 Y51.7793 Z20.5218 E0.0510869
G1 X50.9712 Y52.3447 Z20.5274 E0.051527
G1 X50.0 Y52.5594 Z20.5331 E0.0519668
G1 X49.0123 Y52.3845 Z20.5388 E0.0524064
G1 X48.1597 Y51.8403 Z20.5446 E0.0528457
G1 X47.5757 Y51.0042 Z20.5504 E0.0532848
G1 X47.3544 Y50.0 Z20.5563 E0.0537236
G1 X47.5359 Y48.9793 Z20.5622 E0.0541621
G1 X48.0989 Y48.0989 Z20.5682 E0.0546004
G1 X48.9629 Y47.4962 Z20.5742 E0.0550384
G1 X50.0 Y47.2684 Z20.5803 E0.0554761
G1 X51.0535 Y47.4565 Z20.5864 E0.0559135
G1 X51.9619 Y48.0381 Z20.5926 E0.0563507
G1 X52.5831 Y48.9301 Z20.5988 E0.0567876
G1 F177 X52.8173 Y50.0 Z20.6051 E0.0572242
G1 X52.6817 Y50.9206 Z20.6104 E0.0486183
G1 X52.2517 Y51.7526 Z20.6157 E0.0489281
G1 X51.5705 Y52.4038 Z20.6211 E0.0492378
G1 X50.7093 Y52.8009 Z20.6265 E0.0495473
G1 X49.7599 Y52.8974 Z20.632 E0.0498566
G1 X48.8249 Y52.6789 Z20.6374 E0.0501657
G1 X48.0066 Y52.1654 Z20.643 E0.0504747
G1 X47.3957 Y51.4094 Z20.6485 E0.0507834
G1 X47.0615 Y50.4904 Z20.6541 E0.051092
G1 X47.0438 Y49.5067 Z20.6597 E0.0514005
G1 X47.3484 Y48.565 Z20.6653 E0.0517087
G1 X47.9459 Y47.7686 Z20.671 E0.0520168
G1 X48.7745 Y47.2061 Z20.6767 E0.0523246
G1 X49.7466 Y46.9418 Z20.6825 E0.0526323
G1 X50.7577 Y47.0079 Z20.6883 E0.0529398
G1 X51.698 Y47.401 Z20.6941 E0.0532471
G1 X52.4639 Y48.0822 Z20.6999 E0.0535543
G1 X52.97 Y48.9804 Z20.7058 E0.0538612
G1 F193 X53.158 Y50.0 Z20.7117 E0.054168
G1 X53.0331 Y50.9356 Z20.7171 E0.0493141
G1 X52.6359 Y51.7971 Z20.7225 E0.0495651
G1 X51.9991 Y52.5068 Z20.728 E0.049816
G1 X51.1773 Y52.9997 Z20.7334 E0.0500667
G1 X50.242 Y53.2295 Z20.7389 E0.0503173
G1 X49.2758 Y53.173 Z20.7444 E0.0505678
G1 X48.3647 Y52.8325 Z20.75 E0.0508181
G1 X47.5906 Y52.2356 Z20.7556 E0.0510682
G1 X47.0243 Y51.433 Z20.7612 E0.0513182
G1 X46.7182 Y50.4946 Z20.7668 E0.0515681
G1 X46.7024 Y49.503 Z20.7725 E0.0518178
G1 X46.981 Y48.5461 Z20.7781 E0.0520673
G1 X47.5319 Y47.7099 Z20.7838 E0.0523167
G1 X48.3085 Y47.0703 Z20.7896 E0.052566
G1 X49.2437 Y46.6863 Z20.7953 E0.0528151
G1 X50.2552 Y46.5947 Z20.8011 E0.053064
G1 X51.2534 Y46.8063 Z20.807 E0.0533128
G1 X52.1491 Y47.3052 Z20.8128 E0.0535615
G1 X52.8611 Y48.0494 Z20.8187 E0.05381
G1 X53.3242 Y48.9746 Z20.8246 E0.0540583
G1 F208 X53.4946 Y50.0 Z20.8305 E0.0543065
G1 X53.3791 Y50.9468 Z20.8359 E0.0498318
G1 X53.0107 Y51.8309 Z20.8414 E0.0500385
G1 X52.415 Y52.5859 Z20.8469 E0.0502452
G1 X51.6345 Y53.1544 Z20.8524 E0.0504517
G1 X50.7258 Y53.4926 Z20.8579 E0.0506581
G1 X49.7556 Y53.5734 Z20.8635 E0.0508644
G1 X48.7957 Y53.3886 Z20.869 E0.0510706
G1 X47.9178 Y52.9498 Z20.8746 E0.0512766
G1 X47.1879 Y52.2878 Z20.8802 E0.0514826
G1 X46.6617 Y51.45 Z20.8859 E0.0516883
G1 X46.3799 Y50.4976 Z20.8915 E0.051894
G1 X46.3656 Y49.5005 Z20.8972 E0.0520996
G1 X46.6219 Y48.5327 Z20.9029 E0.052305
G1 X47.1319 Y47.6666 Z20.9086 E0.0525103
G1 X47.8595 Y46.9676 Z20.9144 E0.0527155
G1 X48.7522 Y46.4889 Z20.9202 E0.0529205
G1 X49.7447 Y46.2681 Z20.926 E0.0531254
G1 X50.764 Y46.3235 Z20.9318 E0.0533302
G1 X51.7342 Y46.6532 Z20.9376 E0.0535349
G1 X52.5826 Y47.2347 Z20.9435 E0.0537394
G1 X53.2452 Y48.0265 Z20.9494 E0.0539438
G1 X53.6711 Y48.9714 Z20.9553 E0.0541481
G1 F223 X53.8268 Y50.0 Z20.9612 E0.0543522
G1 X53.7194 Y50.955 Z20.9667 E0.0502082
G1 X53.3766 Y51.8563 Z20.9722 E0.0503809
G1 X52.8185 Y52.6467 Z20.9777 E0.0505534
G1 X52.0788 Y53.2756 Z20.9832 E0.0507259
G1 X51.2029 Y53.7022 Z20.9888 E0.0508982
G1 X50.2453 Y53.8981 Z20.9943 E0.0510705
G1 X49.2657 Y53.8496 Z20.9999 E0.0512426
G1 X48.3258 Y53.5579 Z21.0055 E0.0514146
G1 X47.4852 Y53.0399 Z21.0111 E0.0515866
G1 X46.7976 Y52.3267 Z21.0168 E0.0517584
G1 X46.3074 Y51.462 Z21.0225 E0.0519301
G1 X46.0468 Y50.4994 Z21.0281 E0.0521017
G1 X46.0338 Y49.499 Z21.0338 E0.0522732
G1 X46.2709 Y48.5235 Z21.0396 E0.0524446
G1 X46.7446 Y47.6348 Z21.0453 E0.0526159
G1 X47.4268 Y46.8895 Z21.051 E0.0527871
G1 X48.2756 Y46.3355 Z21.0568 E0.0529582
G1 X49.2387 Y46.0089 Z21.0626 E0.0531292
G1 X50.2559 Y45.932 Z21.0684 E0.0533
G1 X51.2636 Y46.111 Z21.0743 E0.0534708
G1 X52.198 Y46.5365 Z21.0801 E0.0536414
G1 X52.9998 Y47.183 Z21.086 E0.053812
G1 X53.6175 Y48.0112 Z21.0919 E0.0539824
G1 X54.0111 Y48.9701 Z21.0978 E0.0541527
G1 F238 X54.1542 Y50.0 Z21.1037 E0.0543229
G1 X54.0539 Y50.9608 Z21.1092 E0.0504696
G1 X53.7338 Y51.8752 Z21.1147 E0.0506154
G1 X53.2099 Y52.6934 Z21.1202 E0.0507611
G1 X52.5094 Y53.3707 Z21.1258 E0.0509067
G1 X51.6692 Y53.8695 Z21.1313 E0.0510523
G1 X50.7339 Y54.162 Z21.1369 E0.0511977
G1 X49.7536 Y54.231 Z21.1425 E0.0513431
G1 X48.781 Y54.0716 Z21.1481 E0.0514883
G1 X47.869 Y53.6911 Z21.1538 E0.0516335
G1 X47.067 Y53.1088 Z21.1594 E0.0517786
G1 X46.4191 Y52.3552 Z21.1651 E0.0519236
G1 X45.9612 Y51.47 Z21.1707 E0.0520685
G1 X45.7193 Y50.5003 Z21.1764 E0.0522133
G1 X45.7074 Y49.4983 Z21.1821 E0.052358
G1 X45.9276 Y48.5178 Z21.1879 E0.0525026
G1 X46.3693 Y47.612 Z21.1936 E0.0526472
G1 X47.0097 Y46.8304 Z21.1993 E0.0527916
G1 X47.8153 Y46.2159 Z21.2051 E0.052936
G1 X48.7434 Y45.8027 Z21.2109 E0.0530802
G1 X49.7446 Y45.6142 Z21.2167 E0.0532244
G1 X50.7649 Y45.6618 Z21.2225 E0.0533685
