;FLAVOR:Marlin
;TIME:2481
;Filament used: 1.76796m
;Layer height: 0.28
;MINX:93.908
;MINY:110.4
;MINZ:0.12
;MAXX:141.082
;MAXY:124.6
;MAXZ:39.32
;Generated with Cura_SteamEngine 5.2.1
M140 S55
M105
M190 S55
M104 S190
M105
M109 S190
M82 ;absolute extrusion mode
; Ender 3 Custom Start G-code
G92 E0 ; Reset Extruder
G28; home axes
G29; BLtouch
G1 Z2.0 F3000 ; Move Z Axis up little to prevent scratching of Heat Bed
G1 X0.1 Y20 Z0.3 F5000.0 ; Move to start position
G1 X0.1 Y200.0 Z0.3 F1500.0 E15 ; Draw the first line
G1 X0.4 Y200.0 Z0.3 F5000.0 ; Move to side a little
G1 X0.4 Y20 Z0.3 F1500.0 E30 ; Draw the second line
G92 E0 ; Reset Extruder
G1 Z2.0 F3000 ; Move Z Axis up little to prevent scratching of Heat Bed
G1 X5 Y20 Z0.3 F5000.0 ; Move over to prevent blob squish
G92 E0
G92 E0
G1 F3000 E-10
;LAYER_COUNT:141
;LAYER:0
M106 S51
M204 S500
;MESH:RR_Uberhangtest.stl
G0 F6000 X95.91 Y112.402 Z0.12
M204 S350
;TYPE:WALL-INNER
G1 F3000 E0
G1 F720 X95.909 Y122.599 E0.22384
G1 X113.31 Y122.598 E0.60582
G1 X103.485 Y120.709 E0.82545
G1 X102.772 Y120.445 E0.84214
G1 X102.261 Y120.105 E0.85561
G1 X101.959 Y119.834 E0.86452
G1 X101.573 Y119.369 E0.87779
G1 X101.364 Y119.026 E0.8866
G1 X101.054 Y118.304 E0.90385
G1 X100.988 Y117.339 E0.92508
G1 X101.061 Y116.778 E0.9375
G1 X101.24 Y116.21 E0.95058
G1 X101.506 Y115.725 E0.96272
G1 X101.886 Y115.24 E0.97624
G1 X102.325 Y114.846 E0.98919
G1 X102.759 Y114.57 E1.00048
G1 X103.379 Y114.312 E1.01522
G1 X113.308 Y112.402 E1.23718
G1 X97.242 Y112.402 E1.58985
G0 F648 X95.91 Y112.402
M204 S500
G0 F6000 X95.51 Y112.002
M204 S350
G1 F720 X95.509 Y122.999 E1.83126
G1 X117.508 Y122.998 E2.31417
G1 X103.597 Y120.324 E2.62513
G1 X102.951 Y120.083 E2.64027
G1 X102.483 Y119.772 E2.6526
G1 X102.267 Y119.578 E2.65898
G1 X101.881 Y119.113 E2.67224
G1 X101.731 Y118.868 E2.67855
G1 X101.448 Y118.209 E2.69429
G1 X101.388 Y117.339 E2.71344
G1 X101.456 Y116.843 E2.72442
G1 X101.611 Y116.361 E2.73554
G1 X101.852 Y115.926 E2.74646
G1 X102.246 Y115.429 E2.76038
G1 X102.716 Y115.058 E2.77352
G1 X103.112 Y114.844 E2.7834
G1 X103.594 Y114.677 E2.7946
G1 X117.506 Y112.002 E3.10559
G1 X96.842 Y112.002 E3.5592
G0 F648 X95.51 Y112.002
M204 S500
G0 F6000 X95.11 Y111.602
M204 S350
G1 F720 X95.109 Y123.399 E3.81816
G1 X121.706 Y123.398 E4.40201
G1 X103.707 Y119.937 E4.80436
G1 X103.135 Y119.726 E4.81774
G1 X102.631 Y119.39 E4.83104
G1 X102.133 Y118.791 E4.84814
G1 X101.843 Y118.115 E4.86428
G1 X101.788 Y117.339 E4.88136
G1 X101.85 Y116.908 E4.89092
G1 X101.982 Y116.512 E4.90008
G1 X102.198 Y116.126 E4.90979
G1 X102.532 Y115.713 E4.92145
G1 X102.918 Y115.404 E4.93231
G1 X103.253 Y115.218 E4.94072
G1 X103.669 Y115.07 E4.95041
G1 X121.704 Y111.602 E5.35356
G1 X96.442 Y111.602 E5.90811
G0 F648 X95.11 Y111.602
M204 S500
G0 F6000 X94.71 Y111.202
M204 S350
;TYPE:WALL-OUTER
G1 F720 X94.709 Y123.799 E6.18463
G1 X125.904 Y123.798 E6.86941
G1 X103.829 Y119.553 E7.36288
G1 X103.34 Y119.375 E7.3743
G1 X102.903 Y119.091 E7.38574
G1 X102.478 Y118.579 E7.40035
G1 X102.237 Y118.005 E7.41401
G1 X102.188 Y117.354 E7.42834
G1 X102.245 Y116.974 E7.43678
G1 X102.352 Y116.662 E7.44402
G1 X102.544 Y116.326 E7.45251
G1 X102.829 Y115.988 E7.46222
G1 X103.12 Y115.75 E7.47047
G1 X103.395 Y115.592 E7.47743
G1 X103.712 Y115.472 E7.48487
G1 X125.902 Y111.202 E7.98092
G1 X96.042 Y111.202 E8.6364
G0 F648 X94.71 Y111.202
M204 S500
G0 F6000 X94.979 Y111.471
G0 X96.27 Y112.762
M204 S350
;TYPE:SKIN
G1 F720 X96.27 Y122.238 E8.84441
G1 X109.521 Y122.237 E9.13529
G1 X103.369 Y121.052 E9.27282
G1 X102.62 Y120.77 E9.29039
G1 X102.067 Y120.412 E9.30485
G1 X101.679 Y120.062 E9.31632
G1 X101.294 Y119.596 E9.32959
G1 X101.031 Y119.167 E9.34064
G1 X100.699 Y118.372 E9.35955
G1 X100.628 Y117.342 E9.38221
G1 X100.704 Y116.727 E9.39582
G1 X100.906 Y116.071 E9.41088
G1 X101.19 Y115.552 E9.42387
G1 X101.708 Y114.883 E9.44244
G1 X102.44 Y114.315 E9.46278
G1 X103.239 Y113.975 E9.48184
G1 X109.529 Y112.762 E9.62246
G1 X97.602 Y112.762 E9.88428
G0 F648 X96.27 Y112.762
M204 S500
G0 F6000 X96.58 Y122.036
M204 S350
G1 F720 X96.469 Y121.925 E9.88773
M204 S500
G0 F6000 X96.469 Y121.36
M204 S350
G1 F720 X97.146 Y122.036 E9.90873
M204 S500
G0 F6000 X97.712 Y122.036
M204 S350
G1 F720 X96.469 Y120.794 E9.9473
M204 S500
G0 F6000 X96.469 Y120.228
M204 S350
G1 F720 X98.277 Y122.036 E10.00343
M204 S500
G0 F6000 X98.843 Y122.036
M204 S350
G1 F720 X96.469 Y119.662 E10.07713
M204 S500
G0 F6000 X96.469 Y119.097
M204 S350
G1 F720 X99.409 Y122.036 E10.16839
M204 S500
G0 F6000 X99.974 Y122.036
M204 S350
G1 F720 X96.469 Y118.531 E10.2772
M204 S500
G0 F6000 X96.469 Y117.965
M204 S350
G1 F720 X100.54 Y122.036 E10.40358
M204 S500
G0 F6000 X101.106 Y122.036
M204 S350
G1 F720 X96.469 Y117.4 E10.54751
M204 S500
G0 F6000 X96.469 Y116.834
M204 S350
G1 F720 X101.672 Y122.036 E10.70902
M204 S500
G0 F6000 X102.237 Y122.036
M204 S350
G1 F720 X96.469 Y116.268 E10.88809
M204 S500
G0 F6000 X96.469 Y115.703
M204 S350
G1 F720 X102.802 Y122.036 E11.08469
M204 S500
G0 F6000 X103.368 Y122.036
M204 S350
G1 F720 X96.469 Y115.137 E11.29887
M204 S500
G0 F6000 X96.469 Y114.571
M204 S350
G1 F720 X100.631 Y118.733 E11.42807
M204 S500
G0 F6000 X100.474 Y118.01
M204 S350
G1 F720 X96.469 Y114.006 E11.55239
M204 S500
G0 F6000 X96.469 Y113.44
M204 S350
G1 F720 X100.429 Y117.4 E11.67533
M204 S500
G0 F6000 X100.482 Y116.887
M204 S350
G1 F720 X96.556 Y112.961 E11.79721
M204 S500
G0 F6000 X97.121 Y112.961
M204 S350
G1 F720 X100.586 Y116.425 E11.90476
M204 S500
G0 F6000 X100.721 Y115.995
M204 S350
G1 F720 X97.687 Y112.961 E11.99895
M204 S500
G0 F6000 X98.253 Y112.961
M204 S350
G1 F720 X100.921 Y115.628 E12.08176
M204 S500
G0 F6000 X101.145 Y115.287
M204 S350
G1 F720 X98.818 Y112.961 E12.15398
M204 S500
G0 F6000 X99.384 Y112.961
M204 S350
G1 F720 X101.391 Y114.967 E12.21627
M204 S500
G0 F6000 X101.657 Y114.667
M204 S350
G1 F720 X99.95 Y112.961 E12.26925
M204 S500
G0 F6000 X100.515 Y112.961
M204 S350
G1 F720 X101.976 Y114.421 E12.31459
M204 S500
G0 F6000 X102.294 Y114.173
M204 S350
G1 F720 X101.081 Y112.961 E12.35223
M204 S500
G0 F6000 X101.647 Y112.961
M204 S350
G1 F720 X102.681 Y113.994 E12.38432
M204 S500
G0 F6000 X103.077 Y113.825
M204 S350
G1 F720 X102.212 Y112.961 E12.41116
M204 S500
G0 F6000 X102.778 Y112.961
M204 S350
G1 F720 X103.528 Y113.71 E12.43442
M204 S500
G0 F6000 X104.002 Y113.619
M204 S350
G1 F720 X103.344 Y112.961 E12.45485
M204 S500
G0 F6000 X103.91 Y112.961
M204 S350
G1 F720 X104.477 Y113.528 E12.47245
M204 S500
G0 F6000 X104.951 Y113.436
M204 S350
G1 F720 X104.475 Y112.961 E12.48721
M204 S500
G0 F6000 X105.041 Y112.961
M204 S350
G1 F720 X105.426 Y113.345 E12.49915
M204 S500
G0 F6000 X105.607 Y112.961
M204 S350
G1 F720 X105.9 Y113.254 E12.50825
M204 S500
G0 F6000 X106.172 Y112.961
M204 S350
G1 F720 X106.375 Y113.163 E12.51453
M204 S500
G0 F6000 X106.738 Y112.961
M204 S350
G1 F720 X106.849 Y113.072 E12.51798
M204 S500
G0 F6000 X102.735 Y115.235
G0 X102.366 Y115.543
G0 X102.03 Y115.941
G0 X101.771 Y116.39
G0 X101.549 Y117.267
G0 X101.617 Y118.166
G0 X101.933 Y118.914
G0 X102.371 Y119.441
G0 X105.205 Y121.61
M204 S350
G1 F720 X105.631 Y122.036 E12.5312
M204 S500
G0 F6000 X105.905 Y121.744
M204 S350
G1 F720 X106.196 Y122.036 E12.54025
M204 S500
G0 F6000 X106.605 Y121.879
M204 S350
G1 F720 X106.762 Y122.036 E12.54513
M204 S500
G0 F6000 X105.065 Y122.036
M204 S350
G1 F720 X104.505 Y121.475 E12.56253
M204 S500
G0 F6000 X104.499 Y122.036
M204 S350
G1 F720 X103.804 Y121.34 E12.58412
M204 S500
G0 F6000 X103.934 Y122.036
M204 S350
G1 F720 X103.038 Y121.14 E12.61193
M204 S500
;MESH:NONMESH
G0 F300 X103.038 Y121.14 Z0.4
G0 F6000 X95.379 Y111.871
G0 X95.109 Y111.601
;TIME_ELAPSED:57.073058
;LAYER:1
M106 S119
M204 S350
;TYPE:WALL-INNER
;MESH:RR_Uberhangtest.stl
G1 F980 X95.109 Y123.399 E13.21624
G1 X121.703 Y123.398 E14.5784
G1 X103.628 Y119.922 E15.52117
G1 X103.26 Y119.81 E15.54088
G1 X102.516 Y119.303 E15.58699
G1 X102.07 Y118.682 E15.62615
G1 X101.877 Y118.195 E15.65298
G1 X101.795 Y117.881 E15.66961
G1 X101.803 Y117.241 E15.70239
G1 X101.847 Y116.861 E15.72198
G1 X102.177 Y116.124 E15.76335
G1 X102.652 Y115.61 E15.79919
G1 X103.039 Y115.341 E15.82333
G1 X103.587 Y115.085 E15.85431
G1 X121.71 Y111.601 E16.79958
G1 X95.679 Y111.601 E18.13291
G0 F882 X95.109 Y111.601
M204 S500
G0 F6800 X94.709 Y111.201
M204 S350
G1 F980 X94.709 Y123.799 E18.77818
G1 X125.901 Y123.798 E20.37586
G1 X103.704 Y119.529 E21.53364
G1 X103.441 Y119.448 E21.54773
G1 X102.801 Y119.014 E21.58734
G1 X102.388 Y118.445 E21.62335
G1 X102.195 Y117.852 E21.65529
G1 X102.206 Y117.037 E21.69704
G1 X102.521 Y116.333 E21.73655
G1 X102.932 Y115.895 E21.76731
G1 X103.209 Y115.703 E21.78458
G1 X103.715 Y115.468 E21.81315
G1 X125.91 Y111.201 E22.97081
G1 X95.279 Y111.201 E24.53975
G0 F882 X94.709 Y111.201
M204 S500
G0 F6800 X94.355 Y110.891
M204 S350
G1 F980 X94.309 Y111.047 E24.54808
G1 X94.309 Y123.951 E25.20903
G1 X94.374 Y124.136 E25.21908
G1 X94.565 Y124.199 E25.22938
G1 X129.543 Y124.199 E27.02097
G1 X130.032 Y124.191 E27.04602
G1 X103.659 Y119.113 E28.42168
G1 X103.086 Y118.724 E28.45715
G1 X102.769 Y118.293 E28.48455
G1 X102.596 Y117.797 E28.51146
G1 X102.605 Y117.126 E28.54583
G1 X102.867 Y116.54 E28.57871
G1 X103.277 Y116.113 E28.60903
G1 X103.836 Y115.852 E28.64063
G1 X129.578 Y110.901 E29.98332
G1 X130.019 Y110.808 E30.0064
G1 X129.544 Y110.801 E30.03073
G1 X94.898 Y110.801 E31.80532
G0 F882 X94.486 Y110.801
G0 X94.355 Y110.891
M204 S500
G0 F6800 X94.297 Y110.446
M204 S350
;TYPE:WALL-OUTER
G1 F830 X94.064 Y110.605 E31.81977
G1 X93.969 Y110.749 E31.82861
G1 X93.909 Y111 E31.84183
G1 X93.909 Y123.998 E32.50759
G1 X93.969 Y124.249 E32.52081
G1 X94.17 Y124.491 E32.53692
G1 X94.502 Y124.599 E32.55481
G1 X129.582 Y124.598 E34.35163
G1 X130.308 Y124.588 E34.38882
G1 X131.396 Y124.556 E34.44457
G1 X132.452 Y124.5 E34.49873
G1 X132.927 Y124.467 E34.52312
G1 X132.459 Y124.34 E34.54796
G1 X131.798 Y124.176 E34.58284
G1 X130.363 Y123.852 E34.65819
G1 X129.629 Y123.703 E34.69656
G1 X103.815 Y118.731 E36.04307
G1 X103.369 Y118.429 E36.07066
G1 X103.119 Y118.099 E36.09186
G1 X102.999 Y117.76 E36.11028
G1 X103.007 Y117.215 E36.1382
G1 X103.219 Y116.74 E36.16484
G1 X103.516 Y116.443 E36.18636
G1 X103.959 Y116.236 E36.2114
G1 X129.629 Y111.3 E37.55032
G1 X131.103 Y110.986 E37.62752
G1 X132.49 Y110.651 E37.7006
G1 F1057.3 X133.425 Y110.487 E37.73877
G1 X132.474 Y110.499 E37.77701
G1 F830 X131.415 Y110.446 E37.83132
G1 X130.316 Y110.412 E37.88764
G1 X129.544 Y110.401 E37.92719
G1 X94.863 Y110.401 E39.70357
G0 F747 X94.502 Y110.401
G0 X94.297 Y110.446
M204 S500
G0 F6800 X94.592 Y111.08
G0 X95.47 Y111.962
M204 S350
;TYPE:SKIN
G1 F830 X95.469 Y123.039 E40.27094
G1 X117.914 Y123.037 E41.42059
G1 X103.539 Y120.271 E42.17039
G1 X103.106 Y120.139 E42.19357
G1 X102.355 Y119.632 E42.23999
G1 X102.109 Y119.356 E42.25892
G1 X101.765 Y118.874 E42.28926
G1 X101.531 Y118.298 E42.3211
G1 X101.437 Y117.939 E42.34011
G1 X101.444 Y117.22 E42.37694
G1 X101.499 Y116.754 E42.40097
G1 X101.869 Y115.925 E42.44747
G1 X102.422 Y115.334 E42.48893
G1 X102.863 Y115.026 E42.51648
G1 X103.476 Y114.739 E42.55115
G1 X117.929 Y111.961 E43.30499
G1 X96.04 Y111.962 E44.42616
G0 F747 X95.47 Y111.962
M204 S500
G0 F6800 X96.01 Y112.161
M204 S350
G1 F830 X95.67 Y112.502 E44.45082
M204 S500
G0 F6800 X95.67 Y113.067
M204 S350
G1 F830 X96.576 Y112.161 E44.51645
M204 S500
G0 F6800 X97.142 Y112.161
M204 S350
G1 F830 X95.67 Y113.633 E44.62308
M204 S500
G0 F6800 X95.67 Y114.199
M204 S350
G1 F830 X97.708 Y112.161 E44.7707
M204 S500
G0 F6800 X98.273 Y112.161
M204 S350
G1 F830 X95.67 Y114.764 E44.95926
M204 S500
G0 F6800 X95.67 Y115.33
M204 S350
G1 F830 X98.839 Y112.161 E45.18881
M204 S500
G0 F6800 X99.405 Y112.161
M204 S350
G1 F830 X95.67 Y115.896 E45.45936
M204 S500
G0 F6800 X95.67 Y116.461
M204 S350
G1 F830 X99.97 Y112.161 E45.77084
M204 S500
G0 F6800 X100.536 Y112.161
M204 S350
G1 F830 X95.67 Y117.027 E46.12332
M204 S500
G0 F6800 X95.669 Y117.593
M204 S350
G1 F830 X101.102 Y112.161 E46.51683
M204 S500
G0 F6800 X101.667 Y112.161
M204 S350
G1 F830 X95.669 Y118.159 E46.95131
M204 S500
G0 F6800 X95.669 Y118.725
M204 S350
G1 F830 X102.233 Y112.161 E47.42678
M204 S500
G0 F6800 X102.799 Y112.161
M204 S350
G1 F830 X95.669 Y119.291 E47.94326
M204 S500
G0 F6800 X95.669 Y119.856
M204 S350
G1 F830 X103.364 Y112.161 E48.50066
M204 S500
G0 F6800 X103.93 Y112.161
M204 S350
G1 F830 X95.669 Y120.422 E49.09906
M204 S500
G0 F6800 X95.669 Y120.988
M204 S350
G1 F830 X104.496 Y112.161 E49.73846
M204 S500
G0 F6800 X105.061 Y112.161
M204 S350
G1 F830 X95.669 Y121.553 E50.41879
M204 S500
G0 F6800 X95.669 Y122.119
M204 S350
G1 F830 X101.474 Y116.314 E50.83929
M204 S500
G0 F6800 X101.256 Y117.098
M204 S350
G1 F830 X95.669 Y122.685 E51.24399
M204 S500
G0 F6800 X96.081 Y122.838
M204 S350
G1 F830 X101.237 Y117.683 E51.61744
M204 S500
G0 F6800 X101.297 Y118.188
M204 S350
G1 F830 X96.647 Y122.838 E51.95427
M204 S500
G0 F6800 X97.213 Y122.838
M204 S350
G1 F830 X101.439 Y118.612 E52.26039
M204 S500
G0 F6800 X101.612 Y119.004
M204 S350
G1 F830 X97.778 Y122.838 E52.53811
M204 S500
G0 F6800 X98.344 Y122.838
M204 S350
G1 F830 X101.848 Y119.334 E52.79193
M204 S500
G0 F6800 X102.106 Y119.642
M204 S350
G1 F830 X98.91 Y122.838 E53.02344
M204 S500
G0 F6800 X99.475 Y122.838
M204 S350
G1 F830 X102.406 Y119.907 E53.23575
M204 S500
G0 F6800 X102.744 Y120.135
M204 S350
G1 F830 X100.041 Y122.838 E53.43155
M204 S500
G0 F6800 X100.607 Y122.838
M204 S350
G1 F830 X103.1 Y120.345 E53.61213
M204 S500
G0 F6800 X103.537 Y120.474
M204 S350
G1 F830 X101.172 Y122.838 E53.78341
M204 S500
G0 F6800 X101.738 Y122.838
M204 S350
G1 F830 X104.011 Y120.565 E53.94806
M204 S500
G0 F6800 X104.486 Y120.656
M204 S350
G1 F830 X102.304 Y122.838 E54.10612
M204 S500
G0 F6800 X102.87 Y122.837
M204 S350
G1 F830 X104.96 Y120.747 E54.25751
M204 S500
G0 F6800 X105.435 Y120.838
M204 S350
G1 F830 X103.436 Y122.837 E54.40231
M204 S500
G0 F6800 X104.001 Y122.837
M204 S350
G1 F830 X105.909 Y120.93 E54.54048
M204 S500
G0 F6800 X106.384 Y121.021
M204 S350
G1 F830 X104.567 Y122.837 E54.67207
M204 S500
G0 F6800 X105.133 Y122.837
M204 S350
G1 F830 X106.858 Y121.112 E54.79702
M204 S500
G0 F6800 X107.333 Y121.203
M204 S350
G1 F830 X105.699 Y122.837 E54.91538
M204 S500
G0 F6800 X106.264 Y122.837
M204 S350
G1 F830 X107.807 Y121.294 E55.02715
M204 S500
G0 F6800 X108.281 Y121.386
M204 S350
G1 F830 X106.83 Y122.837 E55.13226
M204 S500
G0 F6800 X107.396 Y122.837
M204 S350
G1 F830 X108.755 Y121.478 E55.2307
M204 S500
G0 F6800 X109.23 Y121.569
M204 S350
G1 F830 X107.961 Y122.837 E55.32259
M204 S500
G0 F6800 X108.527 Y122.837
M204 S350
G1 F830 X109.704 Y121.66 E55.40784
M204 S500
G0 F6800 X110.179 Y121.751
M204 S350
G1 F830 X109.093 Y122.837 E55.48651
M204 S500
G0 F6800 X109.659 Y122.837
M204 S350
G1 F830 X110.653 Y121.842 E55.55855
M204 S500
G0 F6800 X111.128 Y121.934
M204 S350
G1 F830 X110.225 Y122.837 E55.62396
M204 S500
G0 F6800 X110.79 Y122.837
M204 S350
G1 F830 X111.602 Y122.025 E55.68278
M204 S500
G0 F6800 X112.077 Y122.116
M204 S350
G1 F830 X111.356 Y122.837 E55.735
M204 S500
G0 F6800 X111.922 Y122.837
M204 S350
G1 F830 X112.551 Y122.207 E55.7806
M204 S500
G0 F6800 X113.026 Y122.299
M204 S350
G1 F830 X112.487 Y122.837 E55.81961
M204 S500
G0 F6800 X113.053 Y122.837
M204 S350
G1 F830 X113.499 Y122.39 E55.85195
M204 S500
G0 F6800 X113.619 Y122.837
M204 S350
G1 F830 X113.974 Y122.482 E55.87767
M204 S500
G0 F6800 X114.185 Y122.837
M204 S350
G1 F830 X114.448 Y122.573 E55.89676
M204 S500
G0 F6800 X114.75 Y122.837
M204 S350
G1 F830 X114.923 Y122.664 E55.90929
M204 S500
G0 F6800 X115.316 Y122.837
M204 S350
G1 F830 X115.397 Y122.755 E55.91519
M204 S500
G0 F6800 X103.457 Y119.264
G0 X102.808 Y118.772
G0 X102.491 Y118.268
G0 X102.349 Y117.733
G0 X102.395 Y117.018
G0 X102.719 Y116.337
G0 X103.202 Y115.885
G0 X113.704 Y112.569
M204 S350
G1 F830 X114.112 Y112.161 E55.94475
M204 S500
G0 F6800 X114.404 Y112.434
M204 S350
G1 F830 X114.678 Y112.161 E55.96456
M204 S500
G0 F6800 X115.104 Y112.3
M204 S350
G1 F830 X115.244 Y112.161 E55.97466
M204 S500
G0 F6800 X113.547 Y112.161
M204 S350
